Sources/FrostedUI/Resources/Icons.xcassets/people24.imageset/people-24.svg

<svg width="24" height="24" viewBox="0 0 24 24" fill="none" xmlns="http://www.w3.org/2000/svg" data-fui-icon="true">
  <path
    d="M8.00012 12C9.96143 12.0001 11.5532 12.7834 12.7169 14.085C13.8655 15.3696 14.5709 17.1263 14.8702 19.0664C15.0353 20.1364 14.1719 21 13.174 21H2.82532C1.82754 20.9997 0.964003 20.1362 1.12903 19.0664C1.42834 17.1264 2.1348 15.3696 3.28333 14.085C4.44709 12.7835 6.03886 12.0001 8.00012 12ZM17.0001 12C18.7216 12.0001 20.1299 12.6672 21.1681 13.7852C22.1919 14.8876 22.8265 16.3941 23.1095 18.0547C23.2936 19.1352 22.4175 20 21.423 20H17.7501C17.336 19.9999 17.0001 19.6641 17.0001 19.25C17.0001 18.8359 17.336 18.5001 17.7501 18.5H21.423C21.4981 18.5 21.5585 18.4679 21.5948 18.4277C21.6278 18.391 21.6387 18.3517 21.631 18.3066C21.3825 16.849 20.8422 15.6399 20.0685 14.8066C19.3092 13.989 18.2974 13.5001 17.0001 13.5C16.6111 13.5 16.2503 13.5438 15.9181 13.625C15.5159 13.7229 15.1101 13.4764 15.0118 13.0742C14.9138 12.672 15.1605 12.2663 15.5626 12.168C16.0171 12.057 16.4972 12 17.0001 12ZM8.00012 13.5C6.47896 13.5001 5.28963 14.0917 4.40149 15.085C3.49814 16.0954 2.88006 17.5541 2.61145 19.2949C2.60385 19.3442 2.61737 19.3879 2.65247 19.4268C2.69019 19.4684 2.75074 19.4999 2.82532 19.5H13.174C13.2487 19.5 13.309 19.4684 13.3468 19.4268C13.3821 19.3878 13.3954 19.3444 13.3878 19.2949C13.1192 17.5542 12.5021 16.0954 11.5988 15.085C10.7106 14.0917 9.52125 13.5001 8.00012 13.5ZM8.00012 3C10.2091 3.00017 12.0001 4.79097 12.0001 7C12.0001 9.20903 10.2091 10.9998 8.00012 11C5.79107 10.9999 4.00012 9.20907 4.00012 7C4.00012 4.79093 5.79107 3.00011 8.00012 3ZM17.0001 4C18.933 4.00017 20.5001 5.56711 20.5001 7.5C20.5001 9.43289 18.933 10.9998 17.0001 11C15.0672 10.9999 13.5001 9.43293 13.5001 7.5C13.5001 5.56707 15.0672 4.00011 17.0001 4ZM8.00012 4.5C6.6195 4.50011 5.50012 5.61935 5.50012 7C5.50012 8.38065 6.6195 9.49989 8.00012 9.5C9.38069 9.49983 10.5001 8.38061 10.5001 7C10.5001 5.61939 9.38069 4.50017 8.00012 4.5ZM17.0001 5.5C15.8956 5.50011 15.0001 6.3955 15.0001 7.5C15.0001 8.6045 15.8956 9.49989 17.0001 9.5C18.1045 9.49983 19.0001 8.60446 19.0001 7.5C19.0001 6.39554 18.1045 5.50017 17.0001 5.5Z"
    fill="currentColor"
  />
</svg>

<svg xmlns="http://www.w3.org/2000/svg" width="24" height="24" fill="none" data-fui-icon="true" viewBox="0 0 24 24"><path fill="currentColor" d="M8 12c1.961 0 3.553.783 4.717 2.085 1.149 1.285 1.854 3.041 2.153 4.981.165 1.07-.698 1.934-1.696 1.934H2.825c-.997 0-1.861-.864-1.696-1.934.3-1.94 1.006-3.696 2.154-4.981C4.447 12.783 6.04 12 8 12m9 0c1.722 0 3.13.667 4.168 1.785 1.024 1.103 1.659 2.61 1.942 4.27.184 1.08-.692 1.945-1.687 1.945H17.75a.75.75 0 0 1 0-1.5h3.673a.23.23 0 0 0 .172-.072.14.14 0 0 0 .036-.121c-.248-1.458-.789-2.667-1.562-3.5-.76-.818-1.772-1.307-3.069-1.307q-.584.002-1.082.125a.75.75 0 0 1-.355-1.457A6 6 0 0 1 17 12m-9 1.5c-1.521 0-2.71.592-3.599 1.585-.903 1.01-1.52 2.47-1.79 4.21a.15.15 0 0 0 .041.132.23.23 0 0 0 .173.073h10.349a.23.23 0 0 0 .173-.073.15.15 0 0 0 .04-.132c-.268-1.74-.885-3.2-1.788-4.21C10.71 14.092 9.52 13.5 8 13.5M8 3a4 4 0 1 1 0 8 4 4 0 0 1 0-8m9 1a3.5 3.5 0 1 1 0 7 3.5 3.5 0 0 1 0-7m-9 .5a2.5 2.5 0 1 0 0 5 2.5 2.5 0 0 0 0-5m9 1a2 2 0 1 0 0 4 2 2 0 0 0 0-4"/></svg>
